public/flags/DZ.svg

<svg fill="none" height="53" viewBox="0 0 61 53" width="61" xmlns="http://www.w3.org/2000/svg" xmlns:xlink="http://www.w3.org/1999/xlink"><mask id="a" height="43" maskUnits="userSpaceOnUse" width="59" x="1" y="3"><rect fill="#fff" height="41.4393" rx="3.7125" stroke="#fff" stroke-width="1.06071" width="57.9393" x="1.53036" y="3.53036"/></mask><rect fill="#fff" height="41.4393" rx="3.7125" stroke="#f5f5f5" stroke-width="1.06071" width="57.9393" x="1.53036" y="3.53036"/><g clip-rule="evenodd" fill-rule="evenodd" mask="url(#a)"><path d="m1 45.5h30.9048v-42.5h-30.9048z" fill="#048345"/><g fill="#e81b42"><path d="m37.5238 26.46-3.3028 2.3744 1.2187-3.9015-3.2599-2.434 4.0559-.0368 1.2881-3.8788 1.2881 3.8788 4.056.0368-3.2599 2.434 1.2186 3.9015z"/><path d="m38.2545 33.5604c-2.1663 2.1334-5.0777 3.4396-8.2791 3.4396-6.6926 0-12.118-5.7084-12.118-12.75s5.4254-12.75 12.118-12.75c3.2014 0 6.1128 1.3062 8.2791 3.4396-1.4942-.7172-3.1843-1.1214-4.9742-1.1214-6.0841 0-11.0163 4.6705-11.0163 10.4318s4.9322 10.4318 11.0163 10.4318c1.7899 0 3.48-.4042 4.9742-1.1214z"/></g></g></svg>

<svg width="61" height="53" viewBox="0 0 61 53" fill="none" xmlns="http://www.w3.org/2000/svg">
<rect x="1.53036" y="3.53036" width="57.9393" height="41.4393" rx="3.7125" fill="white" stroke="#F5F5F5" stroke-width="1.06071"/>
<mask id="mask0" mask-type="alpha" maskUnits="userSpaceOnUse" x="1" y="3" width="59" height="43">
<rect x="1.53036" y="3.53036" width="57.9393" height="41.4393" rx="3.7125" fill="white" stroke="white" stroke-width="1.06071"/>
</mask>
<g mask="url(#mask0)">
<path fill-rule="evenodd" clip-rule="evenodd" d="M1 45.5H31.9048V3H1V45.5Z" fill="#048345"/>
<path fill-rule="evenodd" clip-rule="evenodd" d="M37.5238 26.46L34.221 28.8344L35.4397 24.9329L32.1798 22.4989L36.2357 22.4621L37.5238 18.5833L38.8119 22.4621L42.8679 22.4989L39.608 24.9329L40.8266 28.8344L37.5238 26.46Z" fill="#E81B42"/>
<path fill-rule="evenodd" clip-rule="evenodd" d="M38.2545 33.5604C36.0882 35.6938 33.1768 37 29.9754 37C23.2828 37 17.8574 31.2916 17.8574 24.25C17.8574 17.2084 23.2828 11.5 29.9754 11.5C33.1768 11.5 36.0882 12.8062 38.2545 14.9396C36.7603 14.2224 35.0702 13.8182 33.2803 13.8182C27.1962 13.8182 22.264 18.4887 22.264 24.25C22.264 30.0113 27.1962 34.6818 33.2803 34.6818C35.0702 34.6818 36.7603 34.2776 38.2545 33.5604Z" fill="#E81B42"/>
</g>
</svg>
